X:1
T:Title
%%score { ( 1 3 ) | 2 }
L:1/8
Q:1/4=112
M:4/4
K:G
V:1 treble nm="Grand Piano"
V:3 treble 
V:2 bass 
V:1
 D2 G2 G2 F2 | [DG]2 A2 B4 | d2 B>c d2 B>G | [GB]4 [FA]4 | D2 G2 G2 F2 | [DG]2 A2 B4 | %6
w: A.~J.~Showalter * * *||||||
 d2 B>c d2 G>B | [CFA]4 [B,G]4 | d2 B>c d2 [Ge]2 | [Gd]6 z2 | d2 B>c d2 B>G | [GB]4 [FA]4 | %12
w: ||||||
 D2 G2 G2 F2 | [DG]2 A2 B4 | d2 B>c d2 G>B | [CFA]4 [B,G]4 |] %16
w: ||||
V:2
 [G,B,]2 [G,B,D]2 [G,B,D]2 [D,A,D]2 | [B,,G,]2 [D,F,D]2[K:treble] [G,D]4 | %2
 [G,B,G]2 [G,D]>[G,A,D] [G,B,G]2 [G,DG]>[K:bass][G,B,] | [D,D]4 [D,D]4 | %4
 [G,B,]2 [G,B,D]2 [G,B,D]2 [D,A,D]2 | [B,,G,]2 [D,F,D]2[K:treble] [G,D]4 | %6
 [G,B,G]2 [G,D]>[G,A,D] [G,B,G]2 [G,B,]>[G,DG] | D,4 G,,4 | %8
 [G,B,G]2 [G,D]>[G,A,D] [G,B,G]2[K:bass] [C,C]2 | [G,B,]2 G,2 G,2 z2 | %10
 [G,B,G]2 [G,D]>[G,A,D] [G,B,G]2 [G,DG]>[K:bass][G,B,] | [D,D]4 [D,D]4 | %12
 [G,B,]2 [G,B,D]2 [G,B,D]2 [D,A,D]2 | [B,,G,]2 [D,F,D]2[K:treble] [G,D]4 | %14
 [G,B,G]2 [G,D]>[G,A,D] [G,B,G]2 [G,B,]>[G,DG] | D,4 G,,4 |] %16
V:3
 x8 | x8 | x8 | x8 | x8 | x8 | x8 | x8 | x8 | z2 B,2 B,2 z2 | x8 | x8 | x8 | x8 | x8 | x8 |] %16

